!! George Gerswhin, "High Hat" from
!! "Bumper Book of George Gerswhin,"
!! London: Chappell Music Ltd., 1987; pp.110-113
**kern
*M2/4
*MM[Allegro moderato]
=1
8cc
8dd
8ee
8ff
=2
8b-
8cc
8dd
8ee
=3
8a
8b-
8cc
8dd
=4
4g
4cc
=5
8f
8g
8a
8b-
=6
8e
8f
8g
8a
=7
8d
8e
8f
8g
=8
4a
8cc
8cc
=9
8ff
8ff
8ff
8ff
=10
4.ee
8ee
=11
8dd
8dd
8dd
8dd
=12
2cc
!! page 111
=13
8cc
8dd
8ee
8ff
=14
8b-
8cc
8dd
8ee
=15
8a
8b-
8cc
8dd
=16
4g
4cc
=17
8f
8g
8a
8b-
=18
8e
8f
8g
8a
=19
8d
8e
8f
8g
=20
4a
4cc
!! Chorus
=21
8ee
8ee
8ee
8ee
=22
8bn
4.b
=23
8a
8a
8a
8a
=24
2e
=25
8e
8e
8e
8e
=26
8bn
4b
8b
=27
2a
=28
4r
4c
!! page 112
!! Refrain
=29
[2cc
=30
2cc]
=31
8r
8b-
8b-
8b-
=32
8b-
8b-
8b-
[8cc
=33
2cc_
=34
2cc]
=35
8r
8b-
8b-
8b-
=36
8b-
8b-
8b-
[8cc
=37
2cc_
=38
4.cc]
8r
=39
8r
8a
8a
8a
=40
8a
8a
8cc
[8f
=41
4f]
8cc
[8cc
=42
8cc]
8cc
4a
=43
[2f
=44
4f]
4f
=45
[2ff
=46
2ff]
!! page 113
=47
8r
8ee-
8ee-
8ee-
=48
8ee-
8ee-
8ee-
[8ff
=49
2ff_
=50
2ff]
=51
8r
8b-
8b-
8b-
=52
8b-
8b-
8b-
[8cc
=53
2cc_
=54
2cc]
=55
8r
8ee
8dd
8cc
=56
8b-
8a
8g
[8f
=57
4f]
8cc
[8cc
=58
8cc]
8cc
4a
!! First ending.
=59
[2f
=60
8f]
8r
4c
!! page 112
!! Repeat refrain
=29
[2cc
=30
2cc]
=31
8r
8b-
8b-
8b-
=32
8b-
8b-
8b-
[8cc
=33
2cc_
=34
2cc]
=35
8r
8b-
8b-
8b-
=36
8b-
8b-
8b-
[8cc
=37
2cc_
=38
4.cc]
8r
=39
8r
8a
8a
8a
=40
8a
8a
8cc
[8f
=41
4f]
8cc
[8cc
=42
8cc]
8cc
4a
=43
[2f
=44
4f]
4f
=45
[2ff
=46
2ff]
!! page 113
=47
8r
8ee-
8ee-
8ee-
=48
8ee-
8ee-
8ee-
[8ff
=49
2ff_
=50
2ff]
=51
8r
8b-
8b-
8b-
=52
8b-
8b-
8b-
[8cc
=53
2cc_
=54
2cc]
=55
8r
8ee
8dd
8cc
=56
8b-
8a
8g
[8f
=57
4f]
8cc
[8cc
=58
8cc]
8cc
4a
!! Second ending.
=58
[2f
=59
8f]
8r
4r
====
*-
